X: 26754
T: Mill House, The
R: reel
M: 4/4
K: Gmajor
GA|:B2AG ED~D2|GABD EDGE|DEGA BedB|BAAG Aded|
B2AG ED ~D2|~G3D EDGE|DEGA BedB|1 AGAB G3A:|2 AGAB G3B||
dGBd fgfg|~e2 ge dBGE|DEGA BedB|BAAG ~A2BA|
[1G2Bd fgfg|ecge dBGE|DEGA BedB|AGAB ~G3B:|
[2B2AG ED~D2|GABD EDGE|DEGA BedB|AGAB G3A||

